X: 302
M: 2/2
L: 1/8
K: G
|:\
d3e d2c2 | !+!B3A B2c2 | d3e d2d2 | G4 G4 :|\
|:\
"2.F."A3B A2G2 | !+!F3E F2G2 | A3B A2A2 | D4 D4 |

